X: 1
T: PARASOTT -- HORNPIPE
B: Ryan's Mammoth Collection of Fiddle Tunes
R: hornpipe
M: 2/4
L: 1/16
Z: Contributed 20000628213442 by John Chambers John.Chambers:weema.com
K: C
 vcBcd "4"edec |    egfe d2vgue | cBcd egc"4"e | dcBA G2G2 \
| cBcd "4"edec | "0"egfe d2vguf | egc"4"e dfBd | c2c2c2 :|
|: vdc \
| BcAB G2veud | cdBc A2vauf | fdag fdag | fefe fdcB \
| cBcd "4"edec | "0"egfe d2vguf | egc"4"e dfBd | c2c2c2 :|
